X:4
T:The Kilt is my Delight
R:Reel
M:C|
C:Trad
L:1/8
Q:"78 bpm"
K:D
[|: {g}A>{d}A{e}A>{d}B {g}A>B{g}d>f | {g}e2 {GdG}e>f {gde}d>B{G}B>e | {g}A>{d}A{e}A>{d}B {g}A>B{g}d>f | {g}e2 {GdG}e>f {Gdc}d2 {gdG}d>e :|]
[| {gf}g2 a>g {fg}f2 a>f | {g}e2 {GdG}e>f {gde}d>B{G}B>e | {gf}g2 a>g {fg}f2 a>f | {g}e2 {GdG}e>f {Gdc}d2 {gdG}d>e |
| {gf}g2 a>g {fg}f2 a>f | {g}e2 {GdG}e>f {gde}d>B{G}B>e | {g}A>{d}A{e}A>{d}B {g}A>B{g}d>f | {g}e2 {GdG}e>f {Gdc}d2 {g}A2 |]
